X:1
T:Title
%%score ( 1 2 ) { 3 | ( 4 5 ) }
L:1/8
Q:1/4=110
M:3/4
K:G
V:1 treble nm="Grand Piano, Soprano"
V:2 treble 
V:3 bass nm="Choir Pad, What Would You Give?"
V:4 bass 
V:5 bass 
V:1
 D2 [DG]2 [GB]2 | [Gd]4 [Ge][Gd] | [DB]2 [EG]2 [FA]2 | G6 | D2 [DG]2 [DG]2 | [GB]4 [Bd][Ac] | %6
w: By~J.~H.~Carr * *||||||
 [GB]2 [DA]2 [EG]2 | [FA]6 | D2 [DG]2 [GB]2 | [Gd]4 [Ge][Gd] | [DB]2 [EG]2 [FA]2 | G6 | %12
w: ||||||
 [EG]2 [DF]2 [CE]2 | [B,D]2 [DG]2 [GB]2 | [GB]3 [DG] [DA]2 | [DG]6 | [DB]2 [EG]2 [FA]2 | G6 | %18
w: ||||||
 [Gd]2 [G^c]2 [Gd]2 | B-[GB-] [GB-]2 [GB]2 | [GB]2 [G_B]2 [G=B]2 | [Gd]4 [Ge][Gd] | %22
w: ||||
 [DB]2 [EG]2 [EG]2 | [FA]6 | [GB]2 [Gd]2 [GB]2 | [DG]4 [GB][GB] | [Gd]2 [Gd]2 [Gd]2 | [Gc]6 | %28
w: ||||||
 [EG]2 [DF]2 [CE]2 | [B,D]2 [DG]2 [GB]2 | [GB]3 [DG] [DA]2 | [DG]6- | [DG]2 z2 z2 |] %33
w: |||||
V:2
 x6 | x6 | x6 | x6 | x6 | x6 | x6 | x6 | x6 | x6 | x6 | x6 | x6 | x6 | x6 | x6 | x6 | z D E2 D2 | %18
 x6 | .G2 z2 z2 | x6 | x6 | x6 | x6 | x6 | x6 | x6 | x6 | x6 | x6 | x6 | x6 | x6 |] %33
V:3
 B,2 B,2 D2 | B,4 CB, | G,2 B,2 C2 | B,6 | B,2 B,2 B,2 | D4 DD | D2 D2 ^C2 | D6 | B,2 B,2 D2 | %9
 B,4 CB, | G,2 B,2[K:treble] C2 | B,6 | C2 C2 G,2 | G,2 B,2 C2 | D3 B, C2 | B,6 | G,2 B,2 C2 | %17
 B,B, C2 B,2 | B,2 _B,2 =B,2 | DD E2 D2 | D2 ^C2 D2 | B,4 CB, | G,2 B,2[K:treble] ^C2 | D6 | %24
 D2 B,2 D2 | B,4 DD | =F2 F2 F2 | E6 | C2 C2[K:bass] G,2 | G,2 B,2 C2 | D3 B, C2 | B,6- | %32
 B,2 z2 z2 |] %33
V:4
 G,2 G,2 G,2 | G,4 G,G, | z2 E,2 D,2 | G,6 | G,2 G,2 G,2 | G,4 G,G, | G,2 F,2 E,2 | D,6 | %8
 G,2 G,2 G,2 | G,4 G,G, | z2 E,2 D,2 | G,6 | C,2 C,2 C,2 | D,2 D,2 D,2 | D,3 D, D,2 | [G,,G,]6 | %16
 z2 E,2 z2 | G,G, G,2 G,2 | G,2 G,2 G,2 | G,G, G,2 G,2 | G,2 G,2 G,2 | G,4 G,G, | z2 E,2 A,2 | %23
 D,6 | G,2 G,2 G,2 | G,4 G,G, | B,,2 B,,2 B,,2 | C,6 | C,2 C,2 C,2 | D,2 D,2 D,2 | D,3 D, D,2 | %31
 [G,,G,]6- | [G,,G,]2 z2 z2 |] %33
V:5
 x6 | x6 | x6 | x6 | x6 | x6 | x6 | x6 | x6 | x6 | x6 | x6 | x6 | x6 | x6 | x6 | z2 z2 D,2- | %17
 D, z z2 z2 | x6 | x6 | x6 | x6 | x6 | x6 | x6 | x6 | x6 | x6 | x6 | x6 | x6 | x6 | x6 |] %33

